src/icons/switch.svg

<svg fill="none" height="19" viewBox="0 0 35 19" width="35" xmlns="http://www.w3.org/2000/svg"><path d="m.019516 12.7901c.007637.0363.021637.0701.0330906.1048.007637.0227.0123043.0466.0216369.0689.0156975.0367.0373325.0701.0572725.1043.010606.0182.019092.0376.031394.0553.028849.0429.063635.0817.100121.1192.005939.0066.010605.0145.017393.0207l2.754186 2.678c.37291.3626.97704.3626 1.34995 0 .37291-.3622.37291-.95 0-1.3126l-1.1251-1.094h5.6085c1.40464 3.2955 4.70574 5.4653 8.42034 5.4653 3.951 0 7.4319-2.4532 8.664-6.1047.1641-.4872-.1087-1.0115-.6101-1.1711-.0984-.0314-.199-.0462-.2974-.0462-.4009 0-.7747.2483-.9066.639-.9745 2.8871-3.727 4.8267-6.8499 4.8267-3.1228 0-5.8757-1.9396-6.8494-4.8267-.1285-.3812-.49463-.639-.90742-.639h-6.27159l1.12509-1.0936c.37291-.3626.37291-.94996 0-1.31256-.18624-.18109-.43103-.27184-.67539-.27184-.24437 0-.48789.09075-.67455.27184l-2.755039 2.67796c-.044121.0429-.083577.09-.118365.1407-.007637.0111-.012302.0239-.019939.0351-.02503.04-.0496369.0804-.0678788.1241-.0067882.0161-.009758.033-.0156975.0495-.0148487.0405-.0296974.0809-.03903.1238-.01145368.0565-.01739316.1142-.01739316.1724-.00084877.0037-.00169754.0074-.00169754.0107.00042343.0623.00678825.1238.019516.184z" fill="#31e4c3"/><path d="m9.65765 7.27543c.50065.16004 1.03985-.1056 1.20405-.59275.9745-2.88698 3.727-4.82649 6.8498-4.82649 3.1229 0 5.8759 1.93951 6.8495 4.82649.1285.38114.4947.63895.9075.63895h6.2716l-1.1251 1.09391c-.3729.36216-.3729.94995 0 1.31253.3729.36253.977.36253 1.3499 0l2.7534-2.67704c.0454-.04372.0853-.09198.1209-.14354.014-.02062.0242-.0429.0365-.06476.0174-.03135.0373-.06146.0513-.09487.0123-.02888.0191-.0594.028-.08951.0089-.02764.02-.05486.0259-.08374.0115-.05857.0183-.11797.0183-.17778 0-.00124.0008-.00247.0008-.00371 0-.06105-.0068-.1221-.0191-.18191-.0051-.02598-.0157-.04949-.0233-.07466-.0089-.03341-.0174-.06682-.0314-.09899-.0115-.02846-.0289-.05404-.0441-.08126-.014-.02599-.0268-.05363-.0442-.07838-.0314-.04619-.0678-.08827-.1077-.12828-.0034-.00412-.0068-.00907-.0106-.0132l-2.7542-2.67827c-.1863-.18108-.4302-.27183-.6746-.27183s-.4887.09075-.6754.27183c-.3729.36216-.3729.94996 0 1.31253l1.1251 1.09391h-5.6089c-1.4043-3.29493-4.7054-5.46461-8.4201-5.46461-3.951 0-7.4319 2.45305-8.66391 6.10438-.16376.48673.1086 1.011.61006 1.17105z" fill="#9c55f6"/></svg>

<svg width="35" height="19" viewBox="0 0 35 19" fill="none" xmlns="http://www.w3.org/2000/svg">
<path d="M0.019516 12.7901C0.027153 12.8264 0.041153 12.8602 0.0526066 12.8949C0.0602436 12.9176 0.0649109 12.9415 0.0742435 12.9638C0.089941 13.0005 0.111576 13.0339 0.131516 13.0681C0.142122 13.0863 0.150608 13.1057 0.16291 13.1234C0.191759 13.1663 0.226545 13.2051 0.263031 13.2426C0.26897 13.2492 0.273636 13.2571 0.280424 13.2633L3.03461 15.9413C3.40752 16.3039 4.01165 16.3039 4.38456 15.9413C4.75747 15.5791 4.75747 14.9913 4.38456 14.6287L3.25946 13.5347H8.86796C10.2726 16.8302 13.5737 19 17.2883 19C21.2393 19 24.7202 16.5468 25.9523 12.8953C26.1164 12.4081 25.8436 11.8838 25.3422 11.7242C25.2438 11.6928 25.1432 11.678 25.0448 11.678C24.6439 11.678 24.2701 11.9263 24.1382 12.317C23.1637 15.2041 20.4112 17.1437 17.2883 17.1437C14.1655 17.1437 11.4126 15.2041 10.4389 12.317C10.3104 11.9358 9.94427 11.678 9.53148 11.678H3.25989L4.38498 10.5844C4.75789 10.2218 4.75789 9.63444 4.38498 9.27184C4.19874 9.09075 3.95395 9 3.70959 9C3.46522 9 3.2217 9.09075 3.03504 9.27184L0.280001 11.9498C0.23588 11.9927 0.196424 12.0398 0.161636 12.0905C0.153999 12.1016 0.149334 12.1144 0.141697 12.1256C0.116667 12.1656 0.0920601 12.206 0.0738182 12.2497C0.06703 12.2658 0.0640602 12.2827 0.0581207 12.2992C0.043272 12.3397 0.0284233 12.3801 0.0190907 12.423C0.00763702 12.4795 0.00169754 12.5372 0.00169754 12.5954C0.00084877 12.5991 0 12.6028 0 12.6061C0.000423431 12.6684 0.00678825 12.7299 0.019516 12.7901Z" fill="#31E4C3"/>
<path d="M9.65765 7.27543C10.1583 7.43547 10.6975 7.16983 10.8617 6.68268C11.8362 3.7957 14.5887 1.85619 17.7115 1.85619C20.8344 1.85619 23.5874 3.7957 24.561 6.68268C24.6895 7.06382 25.0557 7.32163 25.4685 7.32163H31.7401L30.615 8.41554C30.2421 8.7777 30.2421 9.36549 30.615 9.72807C30.9879 10.0906 31.592 10.0906 31.9649 9.72807L34.7183 7.05103C34.7637 7.00731 34.8036 6.95905 34.8392 6.90749C34.8532 6.88687 34.8634 6.86459 34.8757 6.84273C34.8931 6.81138 34.913 6.78127 34.927 6.74786C34.9393 6.71898 34.9461 6.68846 34.955 6.65835C34.9639 6.63071 34.975 6.60349 34.9809 6.57461C34.9924 6.51604 34.9992 6.45664 34.9992 6.39683C34.9992 6.39559 35 6.39436 35 6.39312C35 6.33207 34.9932 6.27102 34.9809 6.21121C34.9758 6.18523 34.9652 6.16172 34.9576 6.13655C34.9487 6.10314 34.9402 6.06973 34.9262 6.03756C34.9147 6.0091 34.8973 5.98352 34.8821 5.9563C34.8681 5.93031 34.8553 5.90267 34.8379 5.87792C34.8065 5.83173 34.7701 5.78965 34.7302 5.74964C34.7268 5.74552 34.7234 5.74057 34.7196 5.73644L31.9654 3.05817C31.7791 2.87709 31.5352 2.78634 31.2908 2.78634C31.0464 2.78634 30.8021 2.87709 30.6154 3.05817C30.2425 3.42033 30.2425 4.00813 30.6154 4.3707L31.7405 5.46461H26.1316C24.7273 2.16968 21.4262 0 17.7115 0C13.7605 0 10.2796 2.45305 9.04759 6.10438C8.88383 6.59111 9.15619 7.11538 9.65765 7.27543Z" fill="#9C55F6"/>
</svg>
